X:1
T:Hark! The Full Voiced Choir Is Singing
T:Hark! The Full Voiced Choir Is Singing
T:Arranged by Herbert Stephen Irons
T:Richard Robert Chope, 1894
T:Public Domain Courtesy of the Cyber Hymnal™
T:Public Domain Courtesy of the Cyber Hymnal™
C:Arranged by Herbert Stephen Irons
Z:Public Domain
Z:Courtesy of the Cyber Hymnal™
%%score ( 1 2 ) ( 3 4 )
L:1/8
Q:1/4=90
M:6/8
K:G
V:1 treble 
V:2 treble 
V:3 bass 
V:4 bass 
V:1
 [DG]2 [DA] [DB]2 [EG] | d2 [Ac] ([GB]>[FA])G | [DA]2 [FA] [GB]2 [Gd] | c2 [GB] ([GB]2 [FA]) | %4
w: 1.~Hark! the full- voiced|choir is sing- * ing,|As the mid- night|dark- ness flies; *|
w: 2.~Yes, be- hold the|day of glo- * ry,|Dawn at length for|all the earth; *|
w: 3.~Lo, He comes! His|throne the man- * ger,|Shep- herds, seek His|shrine the stall; *|
w: 4.~Mor- tals, raise your|loud- est voic- * es,|Je- sus lifts on|high your horn; *|
 [EG]2 [DA] [DB]2 G | [Gd]2 [Fc] ([GB]>[FA])G | A2 [Fd] B2 [Ge] | d2 [E^c] [Fd]3 || %8
w: Heaven- ly an- gels|now are bring- * ing|Peace- ful tid- ings|from the skies.|
w: List, the cher- ubs|tell the sto- * ry—|“This the day of|Je- sus’ birth.”|
w: Ox and ass be-|hold the Strang- * er,|God, who made and|gov- erns all!|
w: Earth re- deemed to-|day re- joic- * es,|For to- day her|Lord is born!|
"^Refrain" [DB]2 [Ec] ([DB]>[CA])[B,G] | [Gd]2 [Ge] (d>c)[GB] | [FA]2 [FA] [GB]2 [Gd] | %11
w: |||
w: Hail, O Je- * sus!|Hail, O Je- * sus!|Sun of Right- eous-|
w: |||
w: |||
 (dB)[=FG] !fermata![Ee]3 | d2 [Ac] (B>d)[Gc] | (B>c)[FA] G3 |] %14
w: |||
w: ness, * a- rise!|Sun of Right- * eous-|ness, * a- rise!|
w: |||
w: |||
V:2
 x6 | (FG) x2 G x | x6 | (GF) x4 | x5 G | x5 G | (DE) (E F) x2 | (F>G) x4 || x6 | x3 G2 x | x6 | %11
 G2 x4 | (FG) G2 x2 | G2 G3 x |] %14
V:3
 [G,B,]2 [F,A,] G,2 [E,G,] | A,2 [F,D] (D>C)[G,B,] | [F,A,]2 [D,D] [G,D]2 [B,,G,] | %3
 [A,,C]2 [G,,D] [D,D]3 | [E,B,]2 [F,D] G,2 [E,G,] | [D,A,]2 [D,D] (D>C)[G,B,] | %6
 ([F,A,][E,G,])[D,F,] ([G,B,][F,A,])[E,G,] | A,2 [A,,A,] [D,A,]3 || G,2 G, G,2 G, | %9
 [G,B,]2 [G,C] (B,>A,)G, | [B,,D]2 [A,,D] [B,,D]2 [G,,B,] | (B,D)[B,,D] !fermata![C,C]3 | %12
 A,2 [F,D] [G,D]2 [C,E] | (D>E)[D,C] [G,,B,]3 |] %14
V:4
 x3 G,2 x | (D,E,) G,2 x2 | x6 | x6 | x3 G,2 x | x3 G,2 x | x6 | A,2 x4 || G,2 G, G,2 G, | %9
 x3 G,2 G, | x6 | G,,2 x4 | (D,E,) x4 | D,2 x4 |] %14

